assets/svg/1F52A.svg

<svg xmlns="http://www.w3.org/2000/svg" viewBox="0 0 64 64" enable-background="new 0 0 64 64"><path fill="#243438" d="m26.872 23.04c-4.03-4.639-8.06-9.279-12.09-13.92-2.567-2.952-5.131-5.902-7.692-8.854-.164-.189-.348-.304-.406-.253-1.403 1.219-2.807 2.444-4.214 3.662-.804.698-1.61 1.397-2.412 2.097-.056.047.032.244.196.431 4.03 4.639 8.06 9.281 12.09 13.922 2.566 2.953 5.125 5.902 7.689 8.853.09.103.167.172.232.209.002.006.006.006.006.006.008.008.008.008.012.006.065.043.123.06.152.037 1.407-1.223 2.812-2.441 4.218-3.666.804-.698 1.606-1.393 2.413-2.097.058-.045-.034-.244-.196-.433"/><path fill="#34484c" d="m23.454 26.01c-4.03-4.639-8.06-9.281-12.09-13.92-2.566-2.95-5.131-5.902-7.695-8.853-.162-.191-.32-.326-.347-.302-.704.614-1.41 1.221-2.112 1.833-.401.349-.804.697-1.206 1.048-.029.022.086.201.25.388 4.03 4.639 8.06 9.281 12.09 13.922 2.566 2.953 5.125 5.902 7.689 8.853.09.103.164.177.218.222.006.006.006.006.008.008.006.006.006.004.013.008.053.049.098.08.113.065.704-.613 1.405-1.223 2.111-1.832.398-.349.804-.702 1.204-1.05.028-.025-.084-.202-.248-.39"/><path fill="#e7e6e6" d="m24.635 22.877c-5.498 4.774-7.144 11.87-3.678 15.858 3.461 3.982 33.619 29.711 39.12 24.939 5.494-4.776-29.943-45.569-35.437-40.797"/><path fill="#bcbdbf" d="m60.02 63.711c.021-.012.041-.022.056-.036 5.494-4.776-29.943-45.57-35.437-40.798-2.314 2.01-3.939 4.438-4.792 6.867 8.74-8.582 29.13 15.9 40.17 33.967"/></svg>

<?xml version="1.0" encoding="UTF-8" standalone="no"?>
<!-- Generator: Adobe Illustrator 16.0.0, SVG Export Plug-In . SVG Version: 6.00 Build 0)  -->

<svg
   xmlns:dc="http://purl.org/dc/elements/1.1/"
   xmlns:cc="http://creativecommons.org/ns#"
   xmlns:rdf="http://www.w3.org/1999/02/22-rdf-syntax-ns#"
   xmlns:svg="http://www.w3.org/2000/svg"
   xmlns="http://www.w3.org/2000/svg"
   xmlns:sodipodi="http://sodipodi.sourceforge.net/DTD/sodipodi-0.dtd"
   xmlns:inkscape="http://www.inkscape.org/namespaces/inkscape"
   version="1.1"
   id="Layer_1"
   x="0px"
   y="0px"
   width="64px"
   height="64px"
   viewBox="0 0 64 64"
   enable-background="new 0 0 64 64"
   xml:space="preserve"
   inkscape:version="0.48.5 r10040"
   sodipodi:docname="1F52A.svg"
   inkscape:export-filename="D:\TESTINGEMOJI\SVGTEST\1F52A.png"
   inkscape:export-xdpi="90"
   inkscape:export-ydpi="90"><metadata
   id="metadata3845"><rdf:RDF><cc:Work
       rdf:about=""><dc:format>image/svg+xml</dc:format><dc:type
         rdf:resource="http://purl.org/dc/dcmitype/StillImage" /><dc:title></dc:title></cc:Work></rdf:RDF></metadata><defs
   id="defs3843" /><sodipodi:namedview
   pagecolor="#ffffff"
   bordercolor="#666666"
   borderopacity="1"
   objecttolerance="10"
   gridtolerance="10"
   guidetolerance="10"
   inkscape:pageopacity="0"
   inkscape:pageshadow="2"
   inkscape:window-width="640"
   inkscape:window-height="480"
   id="namedview3841"
   showgrid="false"
   inkscape:zoom="3.6875"
   inkscape:cx="32"
   inkscape:cy="32"
   inkscape:window-x="596"
   inkscape:window-y="391"
   inkscape:window-maximized="0"
   inkscape:current-layer="Layer_1" />
<g
   id="g3831">
	<path
   fill="#243438"
   d="M26.872,23.039c-4.029-4.639-8.061-9.279-12.09-13.92C12.215,6.167,9.651,3.217,7.09,0.265   C6.926,0.076,6.742-0.039,6.684,0.012C5.281,1.231,3.877,2.456,2.47,3.674C1.666,4.372,0.86,5.071,0.058,5.771   C0.002,5.818,0.09,6.015,0.254,6.202c4.029,4.639,8.061,9.281,12.092,13.922c2.566,2.953,5.125,5.902,7.689,8.853   c0.09,0.103,0.167,0.172,0.232,0.209c0.002,0.006,0.006,0.006,0.006,0.006c0.008,0.008,0.008,0.008,0.012,0.006   c0.065,0.043,0.123,0.06,0.152,0.037c1.407-1.223,2.812-2.441,4.218-3.666c0.804-0.698,1.606-1.393,2.413-2.097   C27.126,23.427,27.034,23.228,26.872,23.039z"
   id="path3833" />
	<path
   fill="#34484C"
   d="M23.454,26.008c-4.029-4.639-8.062-9.281-12.09-13.92c-2.566-2.95-5.131-5.902-7.695-8.853   c-0.162-0.191-0.32-0.326-0.347-0.302C2.618,3.547,1.912,4.154,1.21,4.766C0.809,5.115,0.406,5.463,0.004,5.814   c-0.029,0.022,0.086,0.201,0.25,0.388c4.029,4.639,8.061,9.281,12.092,13.922c2.566,2.953,5.125,5.902,7.689,8.853   c0.09,0.103,0.164,0.177,0.218,0.222c0.006,0.006,0.006,0.006,0.008,0.008c0.006,0.006,0.006,0.004,0.013,0.008   c0.053,0.049,0.098,0.08,0.113,0.065c0.704-0.613,1.405-1.223,2.111-1.832c0.398-0.349,0.804-0.702,1.204-1.05   C23.73,26.373,23.618,26.196,23.454,26.008z"
   id="path3835" />
	<path
   fill="#E7E6E6"
   d="M24.635,22.877c-5.498,4.774-7.144,11.87-3.678,15.858c3.461,3.982,33.619,29.711,39.115,24.939   C65.566,58.898,30.129,18.105,24.635,22.877z"
   id="path3837" />
	<path
   fill="#BCBDBF"
   d="M60.017,63.711c0.021-0.012,0.041-0.022,0.056-0.036c5.494-4.776-29.943-45.57-35.437-40.798   c-2.314,2.011-3.939,4.438-4.792,6.867C28.584,21.162,48.979,45.644,60.017,63.711z"
   id="path3839" />
</g>
</svg>
